DotLab/LUT/output.cube
# Created by: G'MIC (https://gmic.eu)
TITLE "output"
# LUT size
LUT_3D_SIZE 5
# Data domain
# LUT data points
DOMAIN_MIN 0.000000 0.000000 0.000000
DOMAIN_MAX 0.903226 0.903226 0.903226
0.00010846022632904351 0.00010846022632904351 0.00010846022632904351
0.03087979182600975 0.001064821844920516 0.001064821844920516
0.11130739003419876 0.0019527614349499345 0.0019527614349499345
0.23178020119667053 0.0027268261183053255 0.0027268261183053255
0.38430726528167725 0.0034009488299489021 0.0034009488299489021
0.001064821844920516 0.030879789963364601 0.001064821844920516
0.042345285415649414 0.042345285415649414 0.0014601827133446932
0.12282575666904449 0.062490299344062805 0.00215483782812953
0.24218609929084778 0.082628197968006134 0.0028492482379078865
0.39350184798240662 0.10098720341920853 0.0034823173191398382
0.0019527614349499345 0.11130738258361816 0.0019527614349499345
0.062490299344062805 0.1228257492184639 0.00215483782812953
0.14889870584011078 0.14889870584011078 0.0026122578419744968
0.26819026470184326 0.17984525859355927 0.0031551800202578306
0.4175717830657959 0.2106335461139679 0.0036953252274543047
0.0027268261183053255 0.23178020119667053 0.0027268261183053255
0.082628197968006134 0.24218609929084778 0.0028492482379078865
0.17984524369239807 0.26819029450416565 0.0031551800202578306
0.30258446931838989 0.30258446931838989 0.0035598177928477526
0.45150890946388245 0.3396306037902832 0.0039956541731953621
0.0034009488299489021 0.38430726528167725 0.0034009488299489021
0.10098720341920853 0.39350184798240662 0.0034823175519704819
0.2106335461139679 0.4175717830657959 0.0036953252274543047
0.3396306037902832 0.45150890946388245 0.0039956541731953621
0.49028775095939636 0.49028775095939636 0.0043388293124735355
0.001064821844920516 0.001064821844920516 0.030879789963364601
0.042345285415649414 0.0014601827133446932 0.042345285415649414
0.12282575666904449 0.00215483782812953 0.062490299344062805
0.24218609929084778 0.0028492482379078865 0.082628197968006134
0.393501877784729 0.0034823173191398382 0.10098720341920853
0.0014601827133446932 0.042345285415649414 0.042345285415649414
0.050703894346952438 0.050703894346952438 0.050703894346952438
0.1328779011964798 0.06760454922914505 0.067604556679725647
0.25183683633804321 0.085920803248882294 0.085920803248882294
0.40225937962532043 0.10323471575975418 0.10323471575975418
0.00215483782812953 0.12282575666904449 0.062490299344062805
0.067604556679725647 0.1328779011964798 0.067604556679725647
0.15639188885688782 0.15639188885688782 0.079567804932594299
0.27620586752891541 0.1852203905582428 0.094234928488731384
0.42528063058853149 0.2145221084356308 0.10914282500743866
0.0028492482379078865 0.24218609929084778 0.082628197968006134
0.085920803248882294 0.2518368661403656 0.085920810699462891
0.1852203905582428 0.27620586752891541 0.094234928488731384
0.3088735044002533 0.3088735044002533 0.10538037121295929
0.45794194936752319 0.34446960687637329 0.11752492934465408
0.0034823173191398382 0.393501877784729 0.10098720341920853
0.10323471575975418 0.40225940942764282 0.10323471575975418
0.21452212333679199 0.42528066039085388 0.10914282500743866
0.34446960687637329 0.45794194936752319 0.11752492934465408
0.4955001175403595 0.49550008773803711 0.12716375291347504
0.0019527614349499345 0.0019527614349499345 0.11130738258361816
0.062490299344062805 0.00215483782812953 0.1228257492184639
0.14889870584011078 0.0026122578419744968 0.14889869093894958
0.26819026470184326 0.0031551800202578306 0.17984525859355927
0.41757175326347351 0.0036953252274543047 0.2106335461139679
0.00215483782812953 0.062490295618772507 0.12282575666904449
0.067604556679725647 0.06760454922914505 0.1328779011964798
0.15639188885688782 0.079567804932594299 0.15639188885688782
0.27620586752891541 0.094234928488731384 0.1852203905582428
0.42528063058853149 0.10914282500743866 0.2145221084356308
0.0026122578419744968 0.14889869093894958 0.14889869093894958
0.079567804932594299 0.15639188885688782 0.15639188885688782
0.17491739988327026 0.17491739988327026 0.17491739988327026
0.29689359664916992 0.19909335672855377 0.19909335672855377
0.44574502110481262 0.22484481334686279 0.22484481334686279
0.0031551800202578306 0.26819026470184326 0.17984525859355927
0.094234928488731384 0.27620583772659302 0.1852203905582428
0.19909335672855377 0.29689359664916992 0.19909335672855377
0.32546752691268921 0.32546752691268921 0.2182546854019165
0.47521862387657166 0.35746532678604126 0.23971204459667206
0.0036953252274543047 0.41757175326347351 0.2106335461139679
0.10914282500743866 0.42528066039085388 0.2145221084356308
0.22484481334686279 0.44574502110481262 0.22484482824802399
0.35746532678604126 0.47521862387657166 0.23971204459667206
0.50964993238449097 0.50964993238449097 0.257080078125
0.0027268261183053255 0.0027268261183053255 0.23178020119667053
0.082628197968006134 0.0028492482379078865 0.24218609929084778
0.17984524369239807 0.0031551800202578306 0.26819029450416565
0.30258446931838989 0.0035598177928477526 0.30258446931838989
0.45150890946388245 0.0039956541731953621 0.3396306037902832
0.0028492482379078865 0.082628197968006134 0.24218609929084778
0.085920803248882294 0.085920803248882294 0.2518368661403656
0.1852203905582428 0.094234928488731384 0.27620586752891541
0.30887347459793091 0.10538036376237869 0.3088735044002533
0.45794194936752319 0.11752492934465408 0.34446960687637329
0.0031551800202578306 0.17984525859355927 0.26819029450416565
0.094234928488731384 0.1852203905582428 0.27620586752891541
0.19909335672855377 0.19909335672855377 0.29689359664916992
0.32546752691268921 0.2182546854019165 0.32546752691268921
0.47521859407424927 0.23971204459667206 0.35746532678604126
0.0035598177928477526 0.30258449912071228 0.30258446931838989
0.10538037121295929 0.3088735044002533 0.3088735044002533
0.2182547003030777 0.32546752691268921 0.32546752691268921
0.34914422035217285 0.34914419054985046 0.34914422035217285
0.50056493282318115 0.37653112411499023 0.37653115391731262
0.0039956541731953621 0.45150887966156006 0.3396306037902832
0.11752492934465408 0.45794194936752319 0.34446960687637329
0.23971204459667206 0.47521859407424927 0.35746532678604126
0.37653115391731262 0.50056487321853638 0.37653115391731262
0.53078204393386841 0.53078204393386841 0.39926081895828247
0.0034009488299489021 0.0034009488299489021 0.38430726528167725
0.10098720341920853 0.0034823175519704819 0.39350184798240662
0.2106335461139679 0.0036953252274543047 0.4175717830657959
0.33963057398796082 0.0039956541731953621 0.45150890946388245
0.49028775095939636 0.0043388293124735355 0.49028775095939636
0.0034823175519704819 0.10098720341920853 0.393501877784729
0.10323471575975418 0.10323471575975418 0.40225940942764282
0.2145221084356308 0.10914282500743866 0.42528066039085388
0.34446960687637329 0.11752492934465408 0.45794194936752319
0.49550008773803711 0.12716375291347504 0.49550008773803711
0.0036953252274543047 0.2106335461139679 0.4175717830657959
0.10914282500743866 0.21452212333679199 0.42528066039085388
0.22484481334686279 0.22484482824802399 0.44574502110481262
0.35746532678604126 0.23971204459667206 0.47521859407424927
0.50964993238449097 0.257080078125 0.50964993238449097
0.0039956541731953621 0.3396306037902832 0.45150890946388245
0.11752492934465408 0.34446960687637329 0.45794194936752319
0.23971204459667206 0.35746532678604126 0.47521859407424927
0.37653115391731262 0.37653112411499023 0.50056493282318115
0.53078198432922363 0.39926084876060486 0.53078204393386841
0.0043388293124735355 0.49028775095939636 0.49028775095939636
0.12716375291347504 0.4955001175403595 0.4955001175403595
0.257080078125 0.50964999198913574 0.50964993238449097
0.39926081895828247 0.53078204393386841 0.53078204393386841
0.5564996600151062 0.55649960041046143 0.5564996600151062
