DotLab/LUT/output16.cube
# Created by: G'MIC (https://gmic.eu)
TITLE "output16"
# LUT size
LUT_3D_SIZE 6
# Data domain
DOMAIN_MIN 0.0 0.0 0.0
DOMAIN_MAX 1.0 1.0 1.0
# LUT data points
0.00080960092600435019 0.00080960092600435019 0.00080960092600435019
0.02744436077773571 0.0030494644306600094 0.0030494644306600094
0.090870879590511322 0.0053453603759407997 0.0053453599102795124
0.18510442972183228 0.0074041825719177723 0.0074041825719177723
0.30483990907669067 0.0092375744134187698 0.0092375744134187698
0.44557175040245056 0.010867604054510593 0.010867604985833168
0.0030494644306600094 0.02744436077773571 0.0030494644306600094
0.037229180335998535 0.037229180335998535 0.0041365930810570717
0.10093928128480911 0.053438492119312286 0.0059376126155257225
0.19441945850849152 0.069991022348403931 0.0077767809852957726
0.3132527768611908 0.085432589054107666 0.0094925090670585632
0.4531073272228241 0.099462591111660004 0.011051398701965809
0.0053453599102795124 0.090870879590511322 0.0053453594446182251
0.053438492119312286 0.10093928128480911 0.0059376126155257225
0.12180008739233017 0.12180007994174957 0.0071647143922746181
0.215593621134758 0.14660367369651794 0.0086237471550703049
0.33325311541557312 0.17167587578296661 0.01009858213365078
0.47147160768508911 0.19548822939395905 0.011499308049678802
0.0074041825719177723 0.18510444462299347 0.0074041825719177723
0.069991014897823334 0.19441944360733032 0.0077767809852957726
0.14660368859767914 0.21559365093708038 0.0086237462237477303
0.24336628615856171 0.24336628615856171 0.009734652005136013
0.36108434200286865 0.27354878187179565 0.010941950604319572
0.4979851245880127 0.30364948511123657 0.012145980261266232
0.0092375744134187698 0.30483990907669067 0.0092375753447413445
0.085432589054107666 0.3132527768611908 0.0094925090670585632
0.17167587578296661 0.33325314521789551 0.010098581202328205
0.27354878187179565 0.36108434200286865 0.010941950604319572
0.39301770925521851 0.39301773905754089 0.011909628286957741
0.529610276222229 0.42627164721488953 0.012917323037981987
0.010867604985833168 0.44557175040245056 0.010867604985833168
0.099462591111660004 0.4531073272228241 0.011051398701965809
0.19548822939395905 0.47147160768508911 0.011499308049678802
0.30364948511123657 0.4979851245880127 0.012145979329943657
0.42627164721488953 0.52961033582687378 0.012917323969304562
0.56371515989303589 0.56371515989303589 0.013749150559306145
0.0030494644306600094 0.0030494644306600094 0.02744436077773571
0.037229180335998535 0.0041365930810570717 0.037229184061288834
0.10093928128480911 0.0059376126155257225 0.053438492119312286
0.19441944360733032 0.0077767809852957726 0.069991022348403931
0.3132527768611908 0.0094925099983811378 0.085432581603527069
0.4531073272228241 0.011051399633288383 0.099462591111660004
0.0041365930810570717 0.037229180335998535 0.037229180335998535
0.044455062597990036 0.044455055147409439 0.044455058872699738
0.10969973355531693 0.058076363056898117 0.058076363056898117
0.20302779972553253 0.073090016841888428 0.073090016841888428
0.32124349474906921 0.087611876428127289 0.087611868977546692
0.4603705108165741 0.10105695575475693 0.10105694830417633
0.0059376126155257225 0.10093928128480911 0.053438492119312286
0.058076363056898117 0.10969974100589752 0.058076363056898117
0.12846800684928894 0.12846800684928894 0.06801249086856842
0.22281518578529358 0.15151433646678925 0.080213479697704315
0.34032776951789856 0.17532037198543549 0.092816673219203949
0.47811028361320496 0.19824087619781494 0.10495104640722275
0.0077767809852957726 0.19441944360733032 0.069991022348403931
0.073090024292469025 0.20302779972553253 0.073090024292469025
0.15151433646678925 0.22281518578529358 0.080213479697704315
0.24913190305233002 0.24913191795349121 0.089687488973140717
0.36705997586250305 0.27807572484016418 0.10010726004838943
0.50381076335906982 0.30720168352127075 0.11059258878231049
0.0094925090670585632 0.3132527768611908 0.085432589054107666
0.087611876428127289 0.32124349474906921 0.087611876428127289
0.17532037198543549 0.34032776951789856 0.092816673219203949
0.27807572484016418 0.36705997586250305 0.10010726749897003
0.39793670177459717 0.39793670177459717 0.10852819681167603
0.53458434343338013 0.43027514219284058 0.11734776943922043
0.011051398701965809 0.4531073272228241 0.099462591111660004
0.10105694830417633 0.4603705108165741 0.10105694830417633
0.19824087619781494 0.47811028361320496 0.10495104640722275
0.30720168352127075 0.50381076335906982 0.11059258878231049
0.43027514219284058 0.53458434343338013 0.11734776943922043
0.56789296865463257 0.56789296865463257 0.12465944886207581
0.0053453599102795124 0.0053453594446182251 0.090870872139930725
0.053438492119312286 0.0059376126155257225 0.10093928128480911
0.12180008739233017 0.0071647139266133308 0.12180008739233017
0.215593621134758 0.0086237462237477303 0.14660368859767914
0.33325314521789551 0.010098581202328205 0.17167587578296661
0.47147157788276672 0.011499308049678802 0.19548824429512024
0.0059376126155257225 0.053438488394021988 0.10093928128480911
0.058076363056898117 0.058076363056898117 0.10969974100589752
0.12846800684928894 0.068012483417987823 0.12846800684928894
0.22281518578529358 0.080213479697704315 0.15151433646678925
0.34032779932022095 0.092816688120365143 0.17532040178775787
0.47811028361320496 0.10495104640722275 0.19824087619781494
0.0071647139266133308 0.12180008739233017 0.12180008739233017
0.068012483417987823 0.12846800684928894 0.12846800684928894
0.14350610971450806 0.14350610971450806 0.14350612461566925
0.23977059125900269 0.16304402053356171 0.16304402053356171
0.35739010572433472 0.18411006033420563 0.18411004543304443
0.49440616369247437 0.2049977034330368 0.2049977034330368
0.0086237471550703049 0.21559363603591919 0.14660368859767914
0.080213479697704315 0.22281518578529358 0.15151433646678925
0.16304402053356171 0.23977059125900269 0.16304402053356171
0.26295837759971619 0.26295837759971619 0.17881171405315399
0.38163572549819946 0.2891179621219635 0.19660024344921112
0.51820224523544312 0.31597700715065002 0.21486435830593109
0.010098581202328205 0.33325314521789551 0.17167589068412781
0.092816688120365143 0.34032776951789856 0.17532037198543549
0.18411006033420563 0.35739010572433472 0.18411004543304443
0.28911799192428589 0.38163575530052185 0.19660025835037231
0.41006150841712952 0.41006150841712952 0.21124379336833954
0.54695254564285278 0.44023013114929199 0.22678521275520325
0.011499308049678802 0.47147157788276672 0.19548824429512024
0.10495104640722275 0.47811031341552734 0.19824084639549255
0.20499768853187561 0.49440619349479675 0.20499767363071442
0.31597700715065002 0.51820224523544312 0.21486435830593109
0.44023013114929199 0.54695254564285278 0.22678521275520325
0.57834362983703613 0.57834357023239136 0.23980100452899933
0.0074041825719177723 0.0074041825719177723 0.18510444462299347
0.069991022348403931 0.0077767809852957726 0.19441944360733032
0.14660368859767914 0.0086237471550703049 0.215593621134758
0.24336628615856171 0.009734652005136013 0.24336628615856171
0.36108434200286865 0.010941950604319572 0.27354875206947327
0.49798515439033508 0.012145980261266232 0.30364948511123657
0.0077767809852957726 0.069991022348403931 0.19441944360733032
0.073090024292469025 0.073090024292469025 0.20302779972553253
0.15151433646678925 0.080213479697704315 0.22281520068645477
0.24913188815116882 0.089687496423721313 0.24913190305233002
0.36705997586250305 0.10010726749897003 0.27807575464248657
0.50381076335906982 0.11059260368347168 0.30720168352127075
0.0086237471550703049 0.14660368859767914 0.21559365093708038
0.080213479697704315 0.15151433646678925 0.22281520068645477
0.16304402053356171 0.16304402053356171 0.23977059125900269
0.26295837759971619 0.17881171405315399 0.26295840740203857
0.38163578510284424 0.19660024344921112 0.2891179621219635
0.51820224523544312 0.2148643434047699 0.31597700715065002
0.009734652005136013 0.24336628615856171 0.24336627125740051
0.089687496423721313 0.24913188815116882 0.24913190305233002
0.17881172895431519 0.26295840740203857 0.26295840740203857
0.28244137763977051 0.28244137763977051 0.28244137763977051
0.40270936489105225 0.30508285760879517 0.30508285760879517
0.53943479061126709 0.32892367243766785 0.32892367243766785
0.010941950604319572 0.36108434200286865 0.27354875206947327
0.10010726004838943 0.36705994606018066 0.27807572484016418
0.19660025835037231 0.38163575530052185 0.28911799192428589
0.30508285760879517 0.40270936489105225 0.30508285760879517
0.42788529396057129 0.42788532376289368 0.3241555392742157
0.56539732217788696 0.45507591962814331 0.34475445747375488
0.012145980261266232 0.4979851245880127 0.30364948511123657
0.11059260368347168 0.50381076335906982 0.30720168352127075
0.2148643434047699 0.51820224523544312 0.31597700715065002
0.32892367243766785 0.53943473100662231 0.32892367243766785
0.45507591962814331 0.56539738178253174 0.34475445747375488
0.594085693359375 0.594085693359375 0.36224734783172607
0.0092375753447413445 0.0092375753447413445 0.30483990907669067
0.085432589054107666 0.0094925099983811378 0.3132527768611908
0.17167589068412781 0.010098581202328205 0.33325314521789551
0.27354875206947327 0.010941951535642147 0.36108434200286865
0.39301770925521851 0.011909628286957741 0.39301770925521851
0.529610276222229 0.012917323969304562 0.42627167701721191
0.0094925090670585632 0.085432581603527069 0.3132527768611908
0.087611876428127289 0.087611876428127289 0.32124349474906921
0.17532038688659668 0.092816688120365143 0.34032776951789856
0.27807575464248657 0.10010726004838943 0.36705991625785828
0.39793667197227478 0.10852818936109543 0.39793667197227478
0.53458434343338013 0.11734776943922043 0.43027514219284058
0.010098581202328205 0.17167589068412781 0.33325314521789551
0.092816673219203949 0.17532040178775787 0.34032776951789856
0.18411006033420563 0.18411006033420563 0.35739010572433472
0.28911799192428589 0.19660025835037231 0.38163575530052185
0.41006150841712952 0.21124380826950073 0.41006150841712952
0.54695254564285278 0.22678521275520325 0.44023013114929199
0.010941951535642147 0.27354875206947327 0.36108434200286865
0.10010726004838943 0.27807575464248657 0.36705991625785828
0.19660022854804993 0.28911799192428589 0.38163578510284424
0.30508285760879517 0.30508285760879517 0.40270936489105225
0.42788532376289368 0.32415550947189331 0.42788529396057129
0.56539732217788696 0.34475445747375488 0.45507591962814331
0.011909628286957741 0.39301770925521851 0.39301770925521851
0.10852818936109543 0.39793670177459717 0.39793667197227478
0.21124380826950073 0.41006150841712952 0.41006147861480713
0.3241555392742157 0.42788532376289368 0.42788529396057129
0.44958716630935669 0.44958716630935669 0.44958716630935669
0.58824431896209717 0.4734649658203125 0.4734649658203125
0.012917323969304562 0.52961033582687378 0.42627167701721191
0.11734776943922043 0.53458434343338013 0.43027517199516296
0.22678521275520325 0.54695254564285278 0.44023013114929199
0.34475445747375488 0.56539738178253174 0.45507591962814331
0.4734649658203125 0.58824431896209717 0.47346499562263489
0.61382889747619629 0.61382889747619629 0.49405735731124878
0.010867604985833168 0.010867604054510593 0.44557175040245056
0.099462591111660004 0.011051398701965809 0.45310735702514648
0.19548821449279785 0.011499308049678802 0.47147160768508911
0.30364948511123657 0.012145979329943657 0.4979851245880127
0.42627167701721191 0.012917322106659412 0.529610276222229
0.56371521949768066 0.01374914962798357 0.56371521949768066
0.011051398701965809 0.099462583661079407 0.45310729742050171
0.10105695575475693 0.10105695575475693 0.46037057042121887
0.19824086129665375 0.10495104640722275 0.47811031341552734
0.30720168352127075 0.11059259623289108 0.50381070375442505
0.43027517199516296 0.11734776198863983 0.53458434343338013
0.56789302825927734 0.12465944141149521 0.56789296865463257
0.011499308049678802 0.19548824429512024 0.47147160768508911
0.10495104640722275 0.19824086129665375 0.47811031341552734
0.20499768853187561 0.20499768853187561 0.49440619349479675
0.31597700715065002 0.21486435830593109 0.51820224523544312
0.4402301013469696 0.22678521275520325 0.54695254564285278
0.57834362983703613 0.23980101943016052 0.57834362983703613
0.012145979329943657 0.30364948511123657 0.4979851245880127
0.11059260368347168 0.30720168352127075 0.50381070375442505
0.21486435830593109 0.31597700715065002 0.51820224523544312
0.32892367243766785 0.32892364263534546 0.53943479061126709
0.45507588982582092 0.34475445747375488 0.56539732217788696
0.594085693359375 0.36224734783172607 0.594085693359375
0.012917322106659412 0.42627164721488953 0.529610276222229
0.11734777688980103 0.43027517199516296 0.53458428382873535
0.22678521275520325 0.44023013114929199 0.54695254564285278
0.34475445747375488 0.45507588982582092 0.56539732217788696
0.47346493601799011 0.4734649658203125 0.58824431896209717
0.61382889747619629 0.49405735731124878 0.61382889747619629
0.01374914962798357 0.56371515989303589 0.56371521949768066
0.12465944141149521 0.56789296865463257 0.56789296865463257
0.23980101943016052 0.57834362983703613 0.57834362983703613
0.36224734783172607 0.594085693359375 0.594085693359375
0.49405735731124878 0.61382889747619629 0.61382889747619629
0.63623249530792236 0.63623249530792236 0.63623249530792236
