DotLab/LUT/output16.cube
# Created by: G'MIC (https://gmic.eu)
TITLE "output16"
# LUT size
LUT_3D_SIZE 16
# Data domain
DOMAIN_MIN 0.0 0.0 0.0
DOMAIN_MAX 1.0 1.0 1.0
# LUT data points
0.00080960092600435019 0.00080960092600435019 0.00080960092600435019
0.0052852341905236244 0.001442252192646265 0.0014422523090615869
0.014192575588822365 0.00224116793833673 0.00224116793833673
0.02744436077773571 0.0030494644306600094 0.0030494644306600094
0.044799752533435822 0.0038400217890739441 0.0038400215562433004
0.066018484532833099 0.0046059642918407917 0.004605964757502079
0.090870879590511322 0.0053453603759407997 0.0053453599102795124
0.11913876980543137 0.0060579120181500912 0.0060579129494726658
0.15061528980731964 0.0067439749836921692 0.0067439749836921692
0.18510442972183228 0.0074041825719177723 0.0074041825719177723
0.22242057323455811 0.0080393003299832344 0.0080393003299832344
0.26238787174224854 0.0086501510813832283 0.0086501510813832283
0.30483990907669067 0.0092375744134187698 0.0092375744134187698
0.34961923956871033 0.0098024094477295876 0.0098024103790521622
0.39657682180404663 0.01034548319876194 0.01034548319876194
0.44557175040245056 0.010867604054510593 0.010867604985833168
0.001442252192646265 0.0052852341905236244 0.001442252192646265
0.0068307248875498772 0.0068307248875498772 0.0018631460843607783
0.015958666801452637 0.0092395404353737831 0.0025199174415320158
0.029241867363452911 0.011913551948964596 0.0032491609454154968
0.046571612358093262 0.01463690958917141 0.0039918869733810425
0.067744284868240356 0.017330003902316093 0.0047263661399483681
0.092542693018913269 0.019960235804319382 0.0054437010549008846
0.12075375020503998 0.022513441741466522 0.0061400299891829491
0.15217287838459015 0.024983625859022141 0.0068137175403535366
0.18660520017147064 0.027368776500225067 0.0074642118997871876
0.22386564314365387 0.029668951407074928 0.0080915316939353943
0.26377874612808228 0.031885348260402679 0.0086960047483444214
0.30617821216583252 0.034019805490970612 0.0092781288549304008
0.35090667009353638 0.036074522882699966 0.0098385065793991089
0.39781510829925537 0.03805188462138176 0.010377787984907627
0.44676262140274048 0.039954386651515961 0.010896651074290276
0.0022411681711673737 0.014192575588822365 0.0022411681711673737
0.0092395395040512085 0.015958666801452637 0.0025199174415320158
0.019123530015349388 0.019123530015349388 0.0030195533763617277
0.032693129032850266 0.023006390780210495 0.0036326055414974689
0.05009937658905983 0.027196910232305527 0.0042942562140524387
0.071252785623073578 0.031483869999647141 0.0049711405299603939
0.095985829830169678 0.035759486258029938 0.0056462353095412254
0.12410848587751389 0.039967179298400879 0.0063106073066592216
0.1554277092218399 0.044076547026634216 0.0069594550877809525
0.18975482881069183 0.048071250319480896 0.007590197492390871
0.22690828144550323 0.051942877471446991 0.0082015069201588631
0.26671451330184937 0.055687658488750458 0.0087927887216210365
0.30900853872299194 0.059304676949977875 0.0093638980761170387
0.35363367199897766 0.062794782221317291 0.0099149644374847412
0.40044146776199341 0.066159904003143311 0.01044629979878664
0.44929108023643494 0.069402702152729034 0.010958320461213589
0.0030494644306600094 0.02744436077773571 0.0030494644306600094
0.011913551948964596 0.029241867363452911 0.0032491609454154968
0.023006390780210495 0.032693129032850266 0.0036326055414974689
0.037229180335998535 0.037229180335998535 0.0041365930810570717
0.054942969232797623 0.042384631931781769 0.0047094114124774933
0.076206952333450317 0.047850936651229858 0.0053167748264968395
0.10093928128480911 0.053438492119312286 0.0059376126155257225
0.12899744510650635 0.059032771736383438 0.0065591982565820217
0.16021521389484406 0.064564377069473267 0.007173820398747921
0.19441945850849152 0.069991022348403931 0.0077767809852957726
0.23143786191940308 0.075287029147148132 0.0083652250468730927
0.27110272645950317 0.08043709397315979 0.0089374547824263573
0.3132527768611908 0.085432589054107666 0.0094925090670585632
0.35773363709449768 0.090269245207309723 0.010029916651546955
0.4043983519077301 0.094945721328258514 0.010549522936344147
0.4531073272228241 0.099462591111660004 0.011051398701965809
0.0038400220219045877 0.044799745082855225 0.0038400217890739441
0.01463690958917141 0.046571612358093262 0.0039918874390423298
0.027196910232305527 0.05009937658905983 0.0042942562140524387
0.042384631931781769 0.054942972958087921 0.004709410946816206
0.060669068247079849 0.060669071972370148 0.0052002142183482647
0.0822334885597229 0.066934257745742798 0.0057372264564037323
0.10709057748317719 0.07349357008934021 0.0062994514591991901
0.13516110181808472 0.080180346965789795 0.0068726036697626114
0.16631942987442017 0.086883306503295898 0.0074471416883170605
0.20041821897029877 0.093528524041175842 0.0080167325213551521
0.23730197548866272 0.10006712377071381 0.0085771819576621056
0.27681395411491394 0.10646691173315048 0.0091257356107234955
0.31880006194114685 0.11270710080862045 0.0096606090664863586
0.36311089992523193 0.11877461522817612 0.010180681012570858
0.40960296988487244 0.12466178089380264 0.01068529486656189
0.4581388533115387 0.13036471605300903 0.011174120008945465
0.0046059642918407917 0.066018484532833099 0.0046059642918407917
0.017330003902316093 0.067744284868240356 0.0047263661399483681
0.031483866274356842 0.071252785623073578 0.0049711405299603939
0.047850936651229858 0.076206952333450317 0.0053167748264968395
0.066934257745742798 0.082233481109142303 0.0057372264564037323
0.088997229933738708 0.088997222483158112 0.0062091131694614887
0.1141333281993866 0.096230074763298035 0.0067137288860976696
0.14232818782329559 0.10373074561357498 0.0072370306588709354
0.17350371181964874 0.11135315895080566 0.0077688256278634071
0.20754607021808624 0.11899311095476151 0.0083018448203802109
0.2443230003118515 0.12657700479030609 0.0088309533894062042
0.28369393944740295 0.13405318558216095 0.0093525489792227745
0.32551613450050354 0.14138580858707428 0.0098641263321042061
0.36964818835258484 0.14855022728443146 0.010363968089222908
0.41595223546028137 0.15552996098995209 0.010850927792489529
0.46429499983787537 0.16231453418731689 0.011324268765747547
0.0053453599102795124 0.090870879590511322 0.0053453594446182251
0.019960233941674232 0.092542700469493866 0.0054437010549008846
0.035759486258029938 0.095985822379589081 0.0056462357752025127
0.053438492119312286 0.10093928128480911 0.0059376126155257225
0.07349357008934021 0.10709057748317719 0.0062994509935379028
0.096230074763298035 0.1141333281993866 0.0067137288860976696
0.12180008739233017 0.12180007994174957 0.0071647143922746181
0.15024575591087341 0.12987346947193146 0.0076396171934902668
0.18153601884841919 0.13818413019180298 0.0081284800544381142
0.215593621134758 0.14660367369651794 0.0086237471550703049
0.2523137629032135 0.15503619611263275 0.0091197770088911057
0.29157620668411255 0.16341087222099304 0.0096124038100242615
0.33325311541557312 0.17167587578296661 0.01009858213365078
0.37721410393714905 0.17979365587234497 0.010576097294688225
0.42332935333251953 0.18773737549781799 0.011043374426662922
0.47147160768508911 0.19548822939395905 0.011499308049678802
0.0060579124838113785 0.11913876235485077 0.0060579129494726658
0.022513441741466522 0.12075375020503998 0.0061400299891829491
0.03996717557311058 0.12410848587751389 0.0063106073066592216
0.059032771736383438 0.12899744510650635 0.0065591982565820217
0.080180354416370392 0.13516110181808472 0.0068726032041013241
0.10373074561357498 0.14232818782329559 0.0072370306588709354
0.12987346947193146 0.15024575591087341 0.0076396176591515541
0.15869458019733429 0.15869458019733429 0.008069218136370182
0.19020462036132812 0.16749362647533417 0.0085166264325380325
0.22436197102069855 0.17649808526039124 0.0089744804427027702
0.26109063625335693 0.18559454381465912 0.0094370124861598015
0.30029296875 0.19469544291496277 0.0098997699096798897
0.34185865521430969 0.20373395085334778 0.010359353385865688
0.38567075133323669 0.2126595675945282 0.010813198983669281
0.43160969018936157 0.22143456339836121 0.011259383521974087
0.47955614328384399 0.23003102838993073 0.011696493253111839
0.0067439749836921692 0.15061528980731964 0.0067439749836921692
0.02498362772166729 0.15217287838459015 0.0068137170746922493
0.044076547026634216 0.1554277092218399 0.0069594550877809525
0.064564377069473267 0.16021521389484406 0.007173820398747921
0.086883313953876495 0.16631941497325897 0.0074471416883170605
0.11135315150022507 0.17350371181964874 0.0077688265591859818
0.13818414509296417 0.181536003947258 0.0081284800544381142
0.16749362647533417 0.19020462036132812 0.0085166264325380325
0.1993260383605957 0.1993260383605957 0.0089250467717647552
0.23367159068584442 0.20874662697315216 0.0093468651175498962
0.27048206329345703 0.21834093332290649 0.0097764600068330765
0.30968299508094788 0.22800837457180023 0.010209330357611179
0.35118290781974792 0.23766925930976868 0.010641907341778278
0.39487996697425842 0.24726130068302155 0.0110714016482234
0.44066646695137024 0.25673612952232361 0.011495647951960564
0.48843258619308472 0.26605680584907532 0.011912991292774677
0.0074041825719177723 0.18510444462299347 0.0074041825719177723
0.027368776500225067 0.18660517036914825 0.0074642123654484749
0.048071246594190598 0.18975482881069183 0.007590197492390871
0.069991014897823334 0.19441944360733032 0.0077767809852957726
0.093528524041175842 0.20041821897029877 0.0080167325213551521
0.11899311095476151 0.20754607021808624 0.0083018448203802109
0.14660368859767914 0.21559365093708038 0.0086237462237477303
0.17649808526039124 0.22436197102069855 0.0089744804427027702
0.20874662697315216 0.23367159068584442 0.0093468651175498962
0.24336628615856171 0.24336628615856171 0.009734652005136013
0.2803339958190918 0.25331383943557739 0.010132553987205029
0.31959748268127441 0.26340454816818237 0.010536182671785355
0.36108434200286865 0.27354878187179565 0.010941950604319572
0.40470844507217407 0.28367415070533752 0.011346966028213501
0.45037516951560974 0.29372292757034302 0.011748918332159519
0.4979851245880127 0.30364948511123657 0.012145980261266232
0.0080393003299832344 0.22242057323455811 0.0080393003299832344
0.029668951407074928 0.22386564314365387 0.0080915326252579689
0.051942870020866394 0.22690826654434204 0.0082015059888362885
0.075287029147148132 0.23143784701824188 0.0083652250468730927
0.10006712377071381 0.23730197548866272 0.0085771819576621056
0.1265769898891449 0.2443230152130127 0.0088309533894062042
0.15503619611263275 0.2523137629032135 0.009119776077568531
0.18559457361698151 0.26109063625335693 0.0094370115548372269
0.21834093332290649 0.27048206329345703 0.0097764609381556511
0.253313809633255 0.2803339958190918 0.010132553987205029
0.29051178693771362 0.29051178693771362 0.010500427335500717
0.32990291714668274 0.30090045928955078 0.01087592076510191
0.37143278121948242 0.31140327453613281 0.011255539953708649
0.41503122448921204 0.3219400942325592 0.011636390350759029
0.46061688661575317 0.33244523406028748 0.012016093358397484
0.50810176134109497 0.34286540746688843 0.012392724864184856
0.0086501510813832283 0.26238787174224854 0.0086501510813832283
0.031885351985692978 0.26377874612808228 0.0086960047483444214
0.055687658488750458 0.26671448349952698 0.0087927877902984619
0.08043709397315979 0.27110275626182556 0.0089374547824263573
0.10646691173315048 0.27681395411491394 0.0091257365420460701
0.13405318558216095 0.28369393944740295 0.0093525489792227745
0.16341085731983185 0.29157623648643494 0.0096124047413468361
0.19469544291496277 0.30029296875 0.0098997689783573151
0.22800834476947784 0.30968299508094788 0.010209330357611179
0.26340451836585999 0.31959748268127441 0.010536182671785355
0.30090045928955078 0.32990291714668274 0.01087592076510191
0.34048202633857727 0.34048199653625488 0.011224683374166489
0.38211154937744141 0.35123386979103088 0.011579138226807117
0.42573386430740356 0.36207270622253418 0.011936462484300137
0.47128096222877502 0.37292665243148804 0.01229428593069315
0.5186762809753418 0.38373607397079468 0.012650640681385994
0.0092375744134187698 0.30483990907669067 0.0092375753447413445
0.034019805490970612 0.30617818236351013 0.0092781288549304008
0.059304676949977875 0.30900853872299194 0.0093638971447944641
0.085432589054107666 0.3132527768611908 0.0094925090670585632
0.11270710080862045 0.31880006194114685 0.0096606090664863586
0.14138580858707428 0.32551610469818115 0.0098641263321042061
0.17167587578296661 0.33325314521789551 0.010098581202328205
0.20373395085334778 0.34185865521430969 0.010359353385865688
0.23766925930976868 0.35118290781974792 0.010641907341778278
0.27354878187179565 0.36108434200286865 0.010941950604319572
0.31140324473381042 0.37143278121948242 0.011255540885031223
0.35123386979103088 0.38211154937744141 0.011579138226807117
0.39301770925521851 0.39301773905754089 0.011909628286957741
0.43671360611915588 0.40406209230422974 0.01224430650472641
0.48226624727249146 0.41516831517219543 0.012580858543515205
0.529610276222229 0.42627164721488953 0.012917323037981987
0.0098024094477295876 0.34961923956871033 0.0098024094477295876
0.036074522882699966 0.35090667009353638 0.0098385065793991089
0.062794782221317291 0.35363367199897766 0.0099149644374847412
0.090269245207309723 0.35773363709449768 0.010029916651546955
0.11877460777759552 0.36311089992523193 0.010180681012570858
0.14855022728443146 0.36964818835258484 0.010363968089222908
0.17979365587234497 0.37721410393714905 0.010576097294688225
0.2126595675945282 0.38567075133323669 0.010813198983669281
0.24726130068302155 0.39487996697425842 0.0110714016482234
0.28367412090301514 0.40470844507217407 0.011346966028213501
0.3219400942325592 0.41503119468688965 0.011636389419436455
0.36207273602485657 0.42573386430740356 0.011936463415622711
0.40406209230422974 0.4367135763168335 0.01224430650472641
0.44787952303886414 0.44787952303886414 0.012557369656860828
0.49348169565200806 0.45915251970291138 0.012873434461653233
0.5408138632774353 0.47046414017677307 0.013190582394599915
0.01034548319876194 0.39657682180404663 0.01034548319876194
0.03805188462138176 0.39781510829925537 0.010377787984907627
0.066159896552562714 0.40044146776199341 0.01044629979878664
0.094945721328258514 0.4043983519077301 0.010549523867666721
0.12466178089380264 0.40960296988487244 0.01068529486656189
0.15552996098995209 0.41595223546028137 0.010850928723812103
0.18773737549781799 0.42332935333251953 0.011043374426662922
0.22143456339836121 0.43160969018936157 0.011259383521974087
0.25673612952232361 0.44066646695137024 0.011495647951960564
0.29372295737266541 0.45037516951560974 0.011748918332159519
0.33244523406028748 0.46061688661575317 0.012016092427074909
0.37292665243148804 0.47128096222877502 0.012294286862015724
0.41516831517219543 0.48226624727249146 0.012580858543515205
0.4591524600982666 0.49348163604736328 0.012873434461653233
0.50484663248062134 0.50484663248062134 0.013169911690056324
0.55220615863800049 0.51629030704498291 0.013468443416059017
0.010867604985833168 0.44557175040245056 0.010867604985833168
0.039954390376806259 0.44676268100738525 0.010896651074290276
0.069402702152729034 0.44929108023643494 0.010958321392536163
0.099462591111660004 0.4531073272228241 0.011051398701965809
0.13036471605300903 0.4581388533115387 0.011174120008945465
0.16231453418731689 0.46429499983787537 0.011324268765747547
0.19548822939395905 0.47147160768508911 0.011499308049678802
0.23003101348876953 0.47955614328384399 0.011696493253111839
0.26605680584907532 0.48843258619308472 0.011912990361452103
0.30364948511123657 0.4979851245880127 0.012145979329943657
0.34286540746688843 0.5081017017364502 0.012392724864184856
0.38373604416847229 0.5186762809753418 0.012650639750063419
0.42627164721488953 0.52961033582687378 0.012917323969304562
0.4704640805721283 0.5408138632774353 0.013190582394599915
0.51629030704498291 0.55220615863800049 0.013468443416059017
0.56371515989303589 0.56371515989303589 0.013749150559306145
0.001442252192646265 0.001442252192646265 0.0052852341905236244
0.0068307248875498772 0.0018631460843607783 0.0068307248875498772
0.015958666801452637 0.0025199174415320158 0.0092395404353737831
0.029241865500807762 0.0032491609454154968 0.011913551948964596
0.046571608632802963 0.0039918869733810425 0.014636908657848835
0.06774427741765976 0.0047263661399483681 0.017330003902316093
0.092542700469493866 0.0054437010549008846 0.019960235804319382
0.12075375020503998 0.0061400299891829491 0.022513441741466522
0.15217287838459015 0.0068137170746922493 0.02498362772166729
0.18660518527030945 0.0074642118997871876 0.027368778362870216
0.22386564314365387 0.0080915316939353943 0.029668953269720078
0.26377871632575989 0.0086960047483444214 0.031885348260402679
0.30617821216583252 0.0092781297862529755 0.03401980921626091
0.35090669989585876 0.0098385065793991089 0.036074522882699966
0.39781510829925537 0.010377787984907627 0.038051888346672058
0.44676265120506287 0.010896651074290276 0.039954386651515961
0.0018631460843607783 0.0068307253532111645 0.0068307248875498772
0.0080582210794091225 0.0080582210794091225 0.0080582210794091225
0.017520731315016747 0.010143773630261421 0.010143773630261421
0.030912451446056366 0.012594109401106834 0.012594109401106834
0.048260025680065155 0.015167531557381153 0.015167531557381153
0.069412007927894592 0.017756622284650803 0.017756622284650803
0.094172187149524689 0.020311689004302025 0.020311689004302025
0.12233671545982361 0.022808566689491272 0.022808568552136421
0.15370550751686096 0.025235254317522049 0.025235254317522049
0.18808604776859283 0.027585968375205994 0.027585968375205994
0.2252945601940155 0.029858322814106941 0.029858320951461792
0.26515623927116394 0.03205186128616333 0.032051857560873032
0.30750530958175659 0.03416726365685463 0.03416726365685463
0.35218465328216553 0.036205902695655823 0.036205902695655823
0.39904534816741943 0.038169559091329575 0.038169559091329575
0.44794657826423645 0.040060266852378845 0.040060266852378845
0.0025199174415320158 0.015958666801452637 0.0092395404353737831
0.010143772698938847 0.017520729452371597 0.010143772698938847
0.020402764901518822 0.020402763038873672 0.011812211014330387
0.034156132489442825 0.02403588779270649 0.013915549032390118
0.051638379693031311 0.028032351285219193 0.016229270026087761
0.072810903191566467 0.032172329723834991 0.018626093864440918
0.097532741725444794 0.0363357774913311 0.021036507561802864
0.12562760710716248 0.040456388145685196 0.023422118276357651
0.15690986812114716 0.044496860355138779 0.025761337950825691
0.19119499623775482 0.048436086624860764 0.02804194763302803
0.22830377519130707 0.052262332290410995 0.030257139354944229
0.26806429028511047 0.055969472974538803 0.032403379678726196
0.31031227111816406 0.059554897248744965 0.034479148685932159
0.35489177703857422 0.063018180429935455 0.036484207957983017
0.40165463089942932 0.066360332071781158 0.038419138640165329
0.450460284948349 0.069583296775817871 0.040285065770149231
0.0032491609454154968 0.029241865500807762 0.011913551017642021
0.012594109401106834 0.030912451446056366 0.012594110332429409
0.02403588779270649 0.034156132489442825 0.013915549032390118
0.038474500179290771 0.038474500179290771 0.01567484438419342
0.056306943297386169 0.04343683272600174 0.017696509137749672
0.077627159655094147 0.048742685467004776 0.019858144223690033
0.10237721353769302 0.054199755191802979 0.022081388160586357
0.13042953610420227 0.059688132256269455 0.024317393079400063
0.16162694990634918 0.065133281052112579 0.026535781100392342
0.19580182433128357 0.070488683879375458 0.028717610985040665
0.23278540372848511 0.075725391507148743 0.030851086601614952
0.27241224050521851 0.080825619399547577 0.032928958535194397
0.31452235579490662 0.08577883243560791 0.03494693711400032
0.35896247625350952 0.090579323470592499 0.036902688443660736
0.40558627247810364 0.095224611461162567 0.038795214146375656
0.45425453782081604 0.099714420735836029 0.040624391287565231
0.0039918874390423298 0.046571608632802963 0.014636908657848835
0.015167531557381153 0.048260021954774857 0.015167531557381153
0.028032351285219193 0.051638379693031311 0.016229270026087761
0.043436829000711441 0.056306947022676468 0.017696507275104523
0.061861258000135422 0.061861258000135422 0.019442135468125343
0.083508044481277466 0.067971698939800262 0.021362548694014549
0.10840724408626556 0.074397161602973938 0.023381972685456276
0.13649255037307739 0.080970197916030884 0.025447780266404152
0.16764733195304871 0.087576992809772491 0.027524201199412346
0.2017303854227066 0.094140879809856415 0.029587136581540108
0.23859028518199921 0.10061038285493851 0.031620405614376068
0.27807304263114929 0.10695118457078934 0.033613227307796478
0.3200264573097229 0.11314066499471664 0.035558499395847321
0.36430245637893677 0.1191643700003624 0.037451658397912979
0.41075849533081055 0.12501347064971924 0.039289943873882294
0.45925784111022949 0.13068312406539917 0.04107183963060379
0.0047263661399483681 0.06774427741765976 0.017330003902316093
0.017756622284650803 0.069412007927894592 0.017756622284650803
0.032172329723834991 0.072810903191566467 0.018626093864440918
0.048742685467004776 0.077627159655094147 0.019858144223690033
0.067971698939800262 0.083508044481277466 0.0213625468313694
0.090131767094135284 0.090131767094135284 0.023056976497173309
0.11532730609178543 0.097236759960651398 0.024874530732631683
0.14355379343032837 0.1046239510178566 0.026764275506138802
0.17474077641963959 0.11214708536863327 0.028688794001936913
0.20878033339977264 0.11970073729753494 0.0306211207062006
0.24554428458213806 0.12720970809459686 0.032542023807764053
0.2848951518535614 0.1346207857131958 0.034437883645296097
0.32669234275817871 0.14189667999744415 0.036299154162406921
0.37079605460166931 0.14901149272918701 0.038119222968816757
0.41706946492195129 0.1559477299451828 0.039893601089715958
0.46538025140762329 0.16269390285015106 0.041619375348091125
0.0054437010549008846 0.092542700469493866 0.019960235804319382
0.020311689004302025 0.094172187149524689 0.020311689004302025
0.0363357774913311 0.097532741725444794 0.021036507561802864
0.054199755191802979 0.10237721353769302 0.022081386297941208
0.074397161602973938 0.10840725153684616 0.023381970822811127
0.097236759960651398 0.11532730609178543 0.024874530732631683
0.12287690490484238 0.12287690490484238 0.02650287002325058
0.15136642754077911 0.13084216415882111 0.028220867738127708
0.18268032371997833 0.13905517756938934 0.029992299154400826
0.21674636006355286 0.1473875492811203 0.031789474189281464
0.25346362590789795 0.15574268996715546 0.033591564744710922
0.29271477460861206 0.1640489399433136 0.035383105278015137
0.33437424898147583 0.17225341498851776 0.037152696400880814
0.37831339240074158 0.18031762540340424 0.038892034441232681
0.42440369725227356 0.18821381032466888 0.04059513658285141
0.47251886129379272 0.19592246413230896 0.042257782071828842
0.0061400290578603745 0.12075375020503998 0.022513441741466522
0.022808568552136421 0.12233671545982361 0.022808568552136421
0.040456384420394897 0.12562760710716248 0.0234221201390028
0.059688132256269455 0.13042952120304108 0.024317389354109764
0.080970197916030884 0.13649256527423859 0.025447780266404152
0.10462396591901779 0.14355377852916718 0.026764277368783951
0.13084216415882111 0.15136642754077911 0.028220867738127708
0.1597152054309845 0.1597152054309845 0.029777416959404945
0.19125799834728241 0.16842123866081238 0.031400572508573532
0.22543288767337799 0.17734056711196899 0.033063501119613647
0.2621673047542572 0.18635988235473633 0.034745063632726669
0.30136623978614807 0.19539131224155426 0.036428887397050858
0.34292164444923401 0.20436745882034302 0.038102410733699799
0.3867182731628418 0.21323718130588531 0.039756085723638535
0.43263784050941467 0.22196203470230103 0.041382752358913422
0.48056209087371826 0.23051354289054871 0.04297710582613945
