DotLab/LUT/output.cube
# Created by: G'MIC (https://gmic.eu)
TITLE "output"
# LUT size
LUT_3D_SIZE 32
# Data domain
DOMAIN_MIN 0.0 0.0 0.0
DOMAIN_MAX 1.0 1.0 1.0
# LUT data points
0.00010846022632904351 0.00010846022632904351 0.00010846022632904351
0.0010801182361319661 0.00021624173677992076 0.00021624173677992076
0.0032230571378022432 0.00035816524177789688 0.00035816524177789688
0.0065394430421292782 0.00050305086188018322 0.00050305086188018322
0.010996467433869839 0.0006468587089329958 0.0006468587089329958
0.016560625284910202 0.00078860542271286249 0.00078860542271286249
0.02319907583296299 0.00092796556418761611 0.00092796556418761611
0.03087979182600975 0.001064821844920516 0.001064821844920516
0.039571557193994522 0.0011991390492767096 0.0011991390492767096
0.049243979156017303 0.0013309190981090069 0.0013309190981090069
0.059867478907108307 0.0014601830625906587 0.0014601830625906587
0.071413248777389526 0.0015869615599513054 0.0015869615599513054
0.083853229880332947 0.0017112906789407134 0.0017112906789407134
0.097160130739212036 0.0018332103500142694 0.0018332103500142694
0.11130739003419876 0.0019527614349499345 0.0019527614349499345
0.12626913189888 0.0020699859596788883 0.0020699859596788883
0.14202016592025757 0.0021849258337169886 0.0021849258337169886
0.15853600203990936 0.0022976233158260584 0.0022976233158260584
0.17579284310340881 0.0024081212468445301 0.0024081212468445301
0.19376741349697113 0.0025164599064737558 0.0025164599064737558
0.21243719756603241 0.0026226814370602369 0.0026226814370602369
0.23178020119667053 0.0027268261183053255 0.0027268261183053255
0.25177505612373352 0.0028289330657571554 0.0028289330657571554
0.27240091562271118 0.0029290423262864351 0.0029290423262864351
0.29363769292831421 0.0030271927826106548 0.0030271927826106548
0.3154655396938324 0.0031234212219715118 0.0031234212219715118
0.3378654420375824 0.003217766061425209 0.003217766061425209
0.36081871390342712 0.0033102633897215128 0.0033102633897215128
0.38430726528167725 0.0034009488299489021 0.0034009488299489021
0.40831348299980164 0.0034898589365184307 0.0034898589365184307
0.43282029032707214 0.0035770272370427847 0.0035770272370427847
0.45781093835830688 0.0036624874919652939 0.0036624874919652939
0.00021624173677992076 0.0010801182361319661 0.00021624175133183599
0.0014307079836726189 0.0014307079836726189 0.0002861947868950665
0.0036295584868639708 0.0020165108144283295 0.00040331055060960352
0.0069584655575454235 0.0026763849891722202 0.00053527881391346455
0.011415963992476463 0.0033576656132936478 0.00067153369309380651
0.016976289451122284 0.0040419907309114933 0.00080839829752221704
0.023609090596437454 0.0047218287363648415 0.00094436580548062921
0.031283307820558548 0.0053936806507408619 0.0010787362698465586
0.039968177676200867 0.0060557899996638298 0.001211157999932766
0.049633529037237167 0.0067072371020913124 0.0013414474669843912
0.060249898582696915 0.0073475511744618416 0.0014695103745907545
0.07178853452205658 0.0079765059053897858 0.0015953009715303779
0.084221437573432922 0.0085940267890691757 0.0017188054043799639
0.0975213423371315 0.0092001277953386307 0.0018400256521999836
0.11166168749332428 0.0097948862239718437 0.00195897719822824
0.12661662697792053 0.010378411039710045 0.0020756823942065239
0.14236095547676086 0.010950842872262001 0.0021901687141507864
0.15887022018432617 0.011512335389852524 0.0023024671245366335
0.1761205792427063 0.012063052505254745 0.002412610687315464
0.19408877193927765 0.012603169307112694 0.0025206338614225388
0.21275231242179871 0.013132859952747822 0.0026265720371156931
0.23208919167518616 0.01365230605006218 0.0027304613031446934
0.25207799673080444 0.014161685481667519 0.0028323372825980186
0.27269798517227173 0.014661182649433613 0.0029322367627173662
0.29392892122268677 0.015150977298617363 0.0030301951337605715
0.31575113534927368 0.015631243586540222 0.0031262489501386881
0.33814543485641479 0.01610216498374939 0.0032204329036176205
0.36109325289726257 0.016563910990953445 0.0033127821516245604
0.38457641005516052 0.017016658559441566 0.0034033311530947685
0.40857741236686707 0.017460571601986885 0.0034921145997941494
0.43307903409004211 0.017895827069878578 0.0035791653208434582
0.45806458592414856 0.01832258515059948 0.003664516843855381
0.00035816524177789688 0.0032230571378022432 0.00035816527088172734
0.0020165108144283295 0.0036295587196946144 0.00040331055060960352
0.0044259126298129559 0.0044259126298129559 0.00049177760956808925
0.007841203361749649 0.005428556352853775 0.00060317612951621413
0.012332276441156864 0.0065288795158267021 0.00072543229907751083
0.017902614548802376 0.0076725687831640244 0.00085250823758542538
0.024533955380320549 0.0088322386145591736 0.00098136009182780981
0.032200697809457779 0.0099933287128806114 0.001110370154492557
0.040874730795621872 0.011147662065923214 0.0012386291055008769
0.050527319312095642 0.012290434911847115 0.0013656038790941238
0.061129797250032425 0.013418739661574364 0.0014909711899235845
0.072653889656066895 0.014530781656503677 0.0016145312692970037
0.085071898996829987 0.015625452622771263 0.0017361616482958198
0.098356746137142181 0.016702091321349144 0.0018557878211140633
0.1124819740653038 0.017760312184691429 0.001973368227481842
0.12742184102535248 0.018799943849444389 0.00208888272754848
0.14315122365951538 0.019820941612124443 0.0022023266647011042
0.1596456915140152 0.02082335390150547 0.0023137060925364494
0.17688140273094177 0.021807296201586723 0.0024230331182479858
0.19483520090579987 0.022772945463657379 0.002530327532440424
0.2134844958782196 0.023720497265458107 0.0026356109883636236
0.23280735313892365 0.024650188162922859 0.0027389097958803177
0.25278240442276001 0.025562265887856483 0.002840251661837101
0.27338886260986328 0.026456985622644424 0.0029396649915724993
0.29460647702217102 0.027334621176123619 0.0030371800530701876
0.31641557812690735 0.028195446357131004 0.0031328275799751282
0.33879700303077698 0.029039744287729263 0.0032266383059322834
0.36173221468925476 0.02986779622733593 0.0033186441287398338
0.38520297408103943 0.030679885298013687 0.0034088760148733854
0.40919181704521179 0.031476292759180069 0.0034973658621311188
0.43368145823478699 0.032257299870252609 0.0035841444041579962
0.45865538716316223 0.033023182302713394 0.0036692430730909109
0.00050305086188018322 0.0065394430421292782 0.00050305092008784413
0.0026763849891722202 0.0069584660232067108 0.00053527881391346455
0.0054285558871924877 0.007841203361749649 0.00060317618772387505
0.0090377749875187874 0.0090377749875187874 0.00069521664408966899
0.013631613925099373 0.010424188338220119 0.00080186210107058287
0.019253497943282127 0.01191884558647871 0.00091683503706008196
0.025907473638653755 0.013471898622810841 0.0010363002074882388
0.033579986542463303 0.015053107403218746 0.0011579317506402731
0.042249612510204315 0.016643796116113663 0.001280292053706944
0.051891442388296127 0.018232135102152824 0.001402472029440105
0.062479093670845032 0.019810449331998825 0.0015238806372508407
0.073985718190670013 0.021373655647039413 0.0016441275365650654
0.08638453483581543 0.022918350994586945 0.0017629502108320594
0.099649064242839813 0.024442227557301521 0.0018801713595166802
0.11375328898429871 0.025943737477064133 0.0019956720061600208
0.12867173552513123 0.027421843260526657 0.0021093727555125952
0.14437946677207947 0.028875894844532013 0.0022212227340787649
0.16085219383239746 0.030305489897727966 0.0023311914410442114
0.17806623876094818 0.0317104272544384 0.0024392637424170971
0.19599846005439758 0.033090651035308838 0.0025454347487539053
0.21462635695934296 0.034446205943822861 0.0026497084181755781
0.23392803966999054 0.035777229815721512 0.002752094529569149
0.25388213992118835 0.037083908915519714 0.0028526086825877428
0.27446791529655457 0.038366485387086868 0.0029512681066989899
0.29566517472267151 0.039625227451324463 0.0030480946879833937
0.31745418906211853 0.040860440582036972 0.0031431110110133886
0.33981591463088989 0.042072445154190063 0.0032363419886678457
0.36273160576820374 0.043261568993330002 0.0033278127666562796
0.38618329167366028 0.044428166002035141 0.0034175512846559286
0.41015329957008362 0.045572586357593536 0.0035055836196988821
0.43462446331977844 0.046695191413164139 0.0035919379442930222
0.45958021283149719 0.047796342521905899 0.0036766417324542999
0.0006468587089329958 0.010996467433869839 0.0006468587089329958
0.0033576656132936478 0.011415964923799038 0.00067153375130146742
0.0065288795158267021 0.012332276441156864 0.00072543229907751083
0.010424187406897545 0.013631612993776798 0.00080186210107058287
0.015199304558336735 0.015199304558336735 0.00089407822815701365
0.020930865779519081 0.016944039613008499 0.00099670898634940386
0.027647946029901505 0.018800612539052963 0.0011059187818318605
0.035353496670722961 0.020724471658468246 0.0012190870475023985
0.044036515057086945 0.02268548496067524 0.0013344403123483062
0.05367867648601532 0.024663180112838745 0.0014507755404338241
0.064257830381393433 0.026643497869372368 0.0015672646695747972
0.075749926269054413 0.028616642579436302 0.0016833320260047913
0.088130012154579163 0.030575718730688095 0.0017985716694965959
0.10137286782264709 0.032515827566385269 0.0019126957049593329
0.11545336991548538 0.034433461725711823 0.0020254978444427252
0.13034667074680328 0.036326121538877487 0.0021368307061493397
0.1460282951593399 0.038192018866539001 0.0022465893998742104
0.16247430443763733 0.040029902011156082 0.0023546998854726553
0.17966119945049286 0.041838910430669785 0.0024611128028482199
0.19756612181663513 0.043618496507406235 0.002565793925896287
0.2161666601896286 0.045368313789367676 0.0026687243953347206
0.23544101417064667 0.047088205814361572 0.002769894665107131
0.25536796450614929 0.048778150230646133 0.0028693028725683689
0.27592673897743225 0.050438225269317627 0.0029669543728232384
0.29709729552268982 0.052068598568439484 0.0030628587119281292
0.31885990500450134 0.053669486194849014 0.0031570284627377987
0.34119543433189392 0.055241171270608902 0.0032494806218892336
0.36408540606498718 0.056783962994813919 0.0033402331173419952
0.38751170039176941 0.058298222720623016 0.0034293071366846561
0.4114566445350647 0.059784300625324249 0.0035167236346751451
0.43590322136878967 0.06124260276556015 0.0036025061272084713
0.46083471179008484 0.062673516571521759 0.003686677198857069
0.00078860542271286249 0.016560625284910202 0.00078860542271286249
0.0040419907309114933 0.016976289451122284 0.00080839829752221704
0.0076725687831640244 0.017902614548802376 0.00085250817937776446
0.011918846517801285 0.019253497943282127 0.00091683497885242105
0.016944039613008499 0.020930863916873932 0.00099670898634940386
0.0228456761687994 0.0228456761687994 0.0010878900066018105
0.029674122110009193 0.024926265701651573 0.001186965499073267
0.037449322640895844 0.027118485420942307 0.0012913566315546632
0.046172689646482468 0.029382627457380295 0.0013991727028042078
0.055834528058767319 0.031689871102571487 0.0015090416418388486
0.066418677568435669 0.03401932492852211 0.0016199679812416434
0.077905230224132538 0.036355778574943542 0.0017312276177108288
0.090272165834903717 0.038688074797391891 0.0018422892317175865
0.10349634289741516 0.041007988154888153 0.001952761085703969
0.11755409836769104 0.04330940917134285 0.0020623528398573399
0.13242170214653015 0.045587792992591858 0.0021708474960178137
0.14807544648647308 0.047839760780334473 0.002278083935379982
0.16449202597141266 0.050062790513038635 0.0023839422501623631
0.18164835870265961 0.052255008369684219 0.0024883337318897247
0.19952191412448883 0.05441506952047348 0.0025911938864737749
0.21809063851833344 0.056542020291090012 0.0026924773119390011
0.23733288049697876 0.058635182678699493 0.002792151877656579
0.2572275698184967 0.060694143176078796 0.0028901975601911545
0.27775415778160095 0.062718674540519714 0.0029866036493331194
0.29889249801635742 0.064708687365055084 0.0030813661869615316
0.32062312960624695 0.066664211452007294 0.0031744865700602531
0.34292697906494141 0.068585403263568878 0.0032659713178873062
0.36578553915023804 0.070472449064254761 0.0033558306749910116
0.38918069005012512 0.072325617074966431 0.0034440767485648394
0.41309493780136108 0.07414524257183075 0.0035307260695844889
0.43751111626625061 0.075931690633296967 0.0036157944705337286
0.46241268515586853 0.077685326337814331 0.0036993015091866255
0.00092796556418761611 0.02319907583296299 0.00092796556418761611
0.0047218292020261288 0.023609090596437454 0.00094436580548062921
0.0088322386145591736 0.024533955380320549 0.00098136009182780981
0.013471899554133415 0.025907473638653755 0.0010363003239035606
0.018800612539052963 0.027647946029901505 0.0011059187818318605
0.024926265701651573 0.029674120247364044 0.001186965499073267
0.031914394348859787 0.031914394348859787 0.0012765760766342282
0.039799697697162628 0.034310087561607361 0.0013724036980420351
0.048595830798149109 0.03681502491235733 0.0014726013178005815
0.058302637189626694 0.039393674582242966 0.0015757471555843949
0.068911060690879822 0.042018942534923553 0.0016807577339932323
0.080406457185745239 0.044670257717370987 0.0017868102295324206
0.092770673334598541 0.047331977635622025 0.0018932792590931058
0.1059834212064743 0.049992181360721588 0.0019996871706098318
0.12002318352460861 0.052641745656728745 0.002105669816955924
0.13486777245998383 0.055273681879043579 0.0022109472192823887
0.1504947692155838 0.057882603257894516 0.0023153042420744896
0.16688169538974762 0.060464378446340561 0.0024185751099139452
0.18400625884532928 0.063015840947628021 0.0025206336285918951
0.20184643566608429 0.065534554421901703 0.0026213822420686483
0.22038057446479797 0.068018697202205658 0.0027207480743527412
0.23958741128444672 0.070466890931129456 0.0028186757117509842
0.25944614410400391 0.072878129780292511 0.0029151253402233124
0.27993637323379517 0.075251713395118713 0.0030100687872618437
0.30103826522827148 0.077587172389030457 0.0031034871935844421
0.32273232936859131 0.079884245991706848 0.0031953693833202124
0.34499970078468323 0.082142777740955353 0.0032857113983482122
0.36782190203666687 0.084362827241420746 0.0033745132386684418
0.39118102192878723 0.086544468998908997 0.0034617788624018431
0.41505950689315796 0.088687926530838013 0.0035475168842822313
0.43944022059440613 0.090793438255786896 0.0036317375488579273
0.46430671215057373 0.092861339449882507 0.003714453661814332
0.001064821844920516 0.030879789963364601 0.001064821844920516
0.0053936806507408619 0.031283307820558548 0.0010787362698465586
0.009993329644203186 0.032200697809457779 0.0011103702709078789
0.015053107403218746 0.033579986542463303 0.0011579317506402731
0.020724471658468246 0.03535350039601326 0.0012190870475023985
0.027118485420942307 0.037449322640895844 0.0012913566315546632
0.034310087561607361 0.039799697697162628 0.0013724036980420351
0.042345285415649414 0.042345285415649414 0.0014601827133446932
0.051248528063297272 0.045036591589450836 0.0015529859811067581
0.061028886586427689 0.047833453863859177 0.0016494296723976731
0.071684800088405609 0.050703894346952438 0.0017484101699665189
0.083207525312900543 0.05362262949347496 0.0018490563379600644
0.095583446323871613 0.056569799780845642 0.0019506826065480709
0.10879579931497574 0.059529777616262436 0.0020527511369436979
0.12282575666904449 0.062490299344062805 0.00215483782812953
0.13765321671962738 0.065441697835922241 0.0022566104307770729
0.15325738489627838 0.068376369774341583 0.0023578058462589979
0.16961704194545746 0.071288324892520905 0.0024582180194556713
0.18671086430549622 0.074172809720039368 0.0025576832704246044
0.20451764762401581 0.077026128768920898 0.002656073309481144
0.22301629185676575 0.079845339059829712 0.0027532877866178751
0.24218609929084778 0.082628197968006134 0.0028492482379078865
0.26200658082962036 0.085372939705848694 0.0029438943602144718
0.28245770931243896 0.088078215718269348 0.0030371795874089003
0.30351993441581726 0.090743079781532288 0.0031290715560317039
0.3251740038394928 0.09336678683757782 0.0032195444218814373
0.34740111231803894 0.095948882400989532 0.0033085823524743319
0.37018302083015442 0.098489060997962952 0.0033961744047701359
0.39350184798240662 0.10098720341920853 0.0034823173191398382
0.41734021902084351 0.10344329476356506 0.0035670103970915079
0.44168108701705933 0.10585744678974152 0.0036502566654235125
0.46650797128677368 0.1082298532128334 0.0037320638075470924
0.0011991390492767096 0.039571557193994522 0.0011991390492767096
0.0060557895340025425 0.039968181401491165 0.001211157999932766
0.011147662065923214 0.040874730795621872 0.0012386291055008769
0.016643797978758812 0.042249612510204315 0.001280292053706944
0.02268548496067524 0.044036515057086945 0.001334440428763628
0.029382625594735146 0.046172689646482468 0.0013991727028042078
0.03681502491235733 0.048595830798149109 0.0014726013178005815
0.045036587864160538 0.05124853178858757 0.0015529860975220799
0.054080422967672348 0.054080422967672348 0.001638800953514874
0.063963852822780609 0.057048849761486053 0.0017287530936300755
0.074692532420158386 0.060118380934000015 0.0018217690521851182
0.086263708770275116 0.063260048627853394 0.0019169714068993926
0.098668701946735382 0.066450342535972595 0.0020136469975113869
0.11189466714859009 0.069670259952545166 0.002111220033839345
0.1259259432554245 0.072904504835605621 0.0022092272993177176
0.14074493944644928 0.076140716671943665 0.0023072944022715092
0.15633282065391541 0.079368971288204193 0.0024051202926784754
0.17266994714736938 0.082581281661987305 0.0025024630594998598
0.18973627686500549 0.08577120304107666 0.0025991271249949932
0.20751163363456726 0.088933557271957397 0.0026949562598019838
0.22597572207450867 0.092064179480075836 0.0027898235712200403
0.24510848522186279 0.095159761607646942 0.0028836291749030352
0.26489001512527466 0.098217643797397614 0.0029762922786176205
0.28530073165893555 0.10123574733734131 0.003067749785259366
0.30632138252258301 0.10421241819858551 0.0031579521019011736
0.32793301343917847 0.10714642703533173 0.0032468612771481276
0.35011711716651917 0.11003681272268295 0.0033344489056617022
0.37285569310188293 0.11288291960954666 0.0034206944983452559
0.39613097906112671 0.11568426340818405 0.0035055836196988821
0.41992563009262085 0.11844056844711304 0.0035891083534806967
0.44422295689582825 0.12115170806646347 0.0036712642759084702
0.46900641918182373 0.12381769716739655 0.0037520511541515589
0.0013309190981090069 0.049243979156017303 0.0013309190981090069
0.0067072375677525997 0.049633532762527466 0.001341447583399713
0.012290434911847115 0.050527323037385941 0.0013656038790941238
0.018232135102152824 0.051891442388296127 0.0014024719130247831
0.024663180112838745 0.05367867648601532 0.0014507755404338241
0.031689871102571487 0.055834528058767319 0.0015090416418388486
0.039393674582242966 0.058302637189626694 0.0015757471555843949
0.047833453863859177 0.06102888286113739 0.0016494295559823513
0.057048846036195755 0.063963852822780609 0.0017287530936300755
0.06706402450799942 0.06706402450799942 0.0018125412752851844
0.077891118824481964 0.070291988551616669 0.0018997834995388985
0.089533165097236633 0.073616154491901398 0.0019896258600056171
0.10198639333248138 0.0770101398229599 0.0020813553128391504
0.11524215340614319 0.080452069640159607 0.0021743802353739738
0.12928815186023712 0.083923883736133575 0.0022682128474116325
0.14410959184169769 0.087410740554332733 0.0023624526802450418
0.15968994796276093 0.090900436043739319 0.0024567684158682823
0.17601144313812256 0.094382956624031067 0.0025508906692266464
0.19305557012557983 0.097850091755390167 0.0026445968542248011
0.21080334484577179 0.10129512101411819 0.0027377058286219835
0.22923555970191956 0.10471254587173462 0.002830068813636899
0.2483329176902771 0.10809785127639771 0.0029215638060122728
0.26807624101638794 0.11144743114709854 0.0030120927840471268
0.28844651579856873 0.11475829035043716 0.0031015756540000439
0.30942496657371521 0.11802808195352554 0.003189947921782732
0.33099299669265747 0.12125486135482788 0.003277158597484231
0.35313251614570618 0.12443716824054718 0.0033631667029112577
0.37582564353942871 0.12757384777069092 0.0034479417372494936
0.39905491471290588 0.13066400587558746 0.0035314594861119986
0.42280334234237671 0.13370703160762787 0.0036137034185230732
0.44705405831336975 0.13670249283313751 0.0036946618929505348
0.47179096937179565 0.13965010643005371 0.0037743279244750738
0.0014601830625906587 0.059867478907108307 0.0014601829461753368
0.0073475511744618416 0.060249898582696915 0.0014695102581754327
0.013418739661574364 0.061129797250032425 0.0014909711899235845
0.019810449331998825 0.062479089945554733 0.0015238806372508407
0.026643497869372368 0.064257830381393433 0.0015672646695747972
0.03401932492852211 0.066418677568435669 0.0016199679812416434
0.042018942534923553 0.068911060690879822 0.0016807578504085541
0.050703894346952438 0.071684800088405609 0.0017484101699665189
0.060118380934000015 0.074692532420158386 0.00182176916860044
0.070291988551616669 0.077891118824481964 0.0018997834995388985
0.081242397427558899 0.081242397427558899 0.0019815219566226006
0.092977844178676605 0.084713146090507507 0.0020661745220422745
0.10549932718276978 0.088274948298931122 0.002153047826141119
0.1188022643327713 0.091903634369373322 0.0022415521088987589
0.1328779011964798 0.095578841865062714 0.0023311914410442114
0.14771443605422974 0.099283494055271149 0.0024215485900640488
0.1632978618144989 0.10300325602293015 0.0025122745428234339
0.17961239814758301 0.10672621428966522 0.0026030782610177994
0.19664135575294495 0.11044240742921829 0.0026937171351164579
0.21436713635921478 0.11414353549480438 0.0027839888352900743
0.23277172446250916 0.11782272160053253 0.0028737247921526432
0.2518368661403656 0.1214742437005043 0.0029627864714711905
0.2715441882610321 0.12509338557720184 0.0030510581564158201
0.29187539219856262 0.12867623567581177 0.0031384448520839214
0.31281217932701111 0.1322195827960968 0.0032248678617179394
0.33433660864830017 0.13572078943252563 0.0033102633897215128
0.35643088817596436 0.13917778432369232 0.0033945799805223942
0.37907752394676208 0.14258879423141479 0.0034777752589434385
0.40225940942764282 0.14595253765583038 0.0035598177928477526
0.42595958709716797 0.14926791191101074 0.0036406805738806725
0.45016175508499146 0.15253414213657379 0.0037203447427600622
0.47484961152076721 0.15575067698955536 0.0037987970281392336
0.0015869615599513054 0.071413241326808929 0.0015869615599513054
0.0079765049740672112 0.07178853452205658 0.0015953009715303779
0.014530782587826252 0.072653889656066895 0.0016145312692970037
0.021373655647039413 0.073985718190670013 0.0016441274201497436
0.028616642579436302 0.075749926269054413 0.0016833320260047913
0.036355778574943542 0.077905230224132538 0.0017312276177108288
0.044670253992080688 0.080406457185745239 0.0017868102295324206
0.05362262949347496 0.083207525312900543 0.0018490563379600644
0.063260048627853394 0.086263708770275116 0.0019169714068993926
0.073616161942481995 0.089533165097236633 0.0019896258600056171
0.084713146090507507 0.092977844178676605 0.0020661745220422745
0.096563853323459625 0.096563853323459625 0.0021458636038005352
0.10917353630065918 0.10026142001152039 0.002228031400591135
0.12254159152507782 0.10404474288225174 0.0023121056146919727
0.13666273653507233 0.10789163410663605 0.0023975917138159275
0.15152817964553833 0.11178307980298996 0.0024840687401592731
0.16712649166584015 0.11570295691490173 0.0025711767375469208
0.18344421684741974 0.11963753402233124 0.0026586118619889021
0.20046640932559967 0.12357519567012787 0.0027461154386401176
0.21817722916603088 0.12750616669654846 0.002833470469340682
0.23655989766120911 0.13142216205596924 0.0029204925522208214
0.25559735298156738 0.13531623780727386 0.0030070277862250805
0.27527213096618652 0.13918255269527435 0.0030929455533623695
0.29556682705879211 0.14301620423793793 0.0031781378202140331
